X:540
T:Reel 540
M:4/4
K:Emin
L:1/8
dB|AFdF eFdFEEF|dffe dBAc|Bddc dcBc|dBAF FEE:|a|gfef gfeg|fdad bdad|gfef gbag|fedf e2ef|gfef gbag|fdad bdad|gfef gfe^c|dBAF GEE|
